; HEADER_BLOCK_START
; generated by AnycubicSlicerNext 1.4.1.2 on 2026-07-03 at 22:21:59
; total layer number: 282
; filament_density: 1.24
; filament_diameter: 1.75
; max_z_height: 56.44
; exclude_object: 0
; model_instances: 3
; source_info: {"models":[{"file_source":0,"mo_file_id":-1,"name":"верхняя_часть.STL_id_0_copy_0"},{"file_source":0,"mo_file_id":-1,"name":"Нижняя_часть.STL_id_1_copy_0"},{"file_source":0,"mo_file_id":-1,"name":"Кнопка.STL_id_2_copy_0"}],"models_from":0,"plate_index":1,"slice_paras_process":1,"software_version":"AnycubicSlicerNext 1.4.1.2 20260604104233"}
; paint_info = [{"material_type":"PLA","paint_color":[105,164,255],"paint_index":0}]
; project_info = {"flush_multiplier":1.0,"flush_volumes_chan_multipliers":[1.0,1.0,1.0,1.0],"flush_volumes_matrix":[0.0],"flush_volumes_vector":[140.0,140.0]}
; flush_multiplier_calculate_by_acnext: 1
; test_mode: 0
; HEADER_BLOCK_END

; THUMBNAIL_BLOCK_START
; THUMBNAIL_BLOCK_END

; external perimeters extrusion width = 0.42mm
; perimeters extrusion width = 0.45mm
; infill extrusion width = 0.45mm
; solid infill extrusion width = 0.42mm
; top infill extrusion width = 0.42mm
; support material extrusion width = 0.40mm
; first layer extrusion width = 0.50mm

; external perimeters extrusion width = 0.42mm
; perimeters extrusion width = 0.45mm
; infill extrusion width = 0.45mm
; solid infill extrusion width = 0.42mm
; top infill extrusion width = 0.42mm
; support material extrusion width = 0.40mm
; first layer extrusion width = 0.50mm

; external perimeters extrusion width = 0.42mm
; perimeters extrusion width = 0.45mm
; infill extrusion width = 0.45mm
; solid infill extrusion width = 0.42mm
; top infill extrusion width = 0.42mm
; support material extrusion width = 0.40mm
; first layer extrusion width = 0.50mm

; EXECUTABLE_BLOCK_START
M201 X2000 Y2000 Z800 E2000
M203 X300 Y300 Z8 E100
M204 P2000 R2000 T2000
M205 X10.00 Y10.00 Z2.00 E5.00
;TYPE:Custom
G90 ; use absolute coordinates
M83 ; extruder relative mode
M104 S220 ; set extruder temp
M140 S60 ; set bed temp
M190 S60 ; wait for bed temp
M109 S220 ; wait for extruder temp
G28                                        ; move X/Y/Z to min endstops
G1 Z0.28                                   ; lift nozzle a bit 
G92 E0 
G1 Y3 F1800                                    ; zero the extruded length 
G1 X60  E25 F500                       ; Extrude 25mm of filament in a 5cm line. 
G92 E0                                     ; zero the extruded length again 
G1 E-2 F500                                ; Retract a little 
G1 X70 F4000                              ; Quickly wipe away from the filament line
M117
G90
G21
M83 ; use relative distances for extrusion
; EXECUTABLE_BLOCK_HEAD
; filament start gcode
M75 ; The first extruder is ready.
M106 S0
;LAYER_CHANGE
;Z:0.24
;HEIGHT:0.24
; BEFORE_LAYER_CHANGE 0 @ 0.24mm
G92 E0
; AFTER_LAYER_CHANGE 0 @ 0.24mm
M204 S500
G1 E-.8 F3600
G1 X87.456 Y93.489 F18000
G1 Z.24
G1 E.8 F3600
;TYPE:Skirt
;WIDTH:0.5
G1 F3000
G1 X91.627 Y89.462 E.2543
G1 X92.448 Y88.808 E.04601
G1 X93.297 Y88.359 E.04213
G1 X121.078 Y77.494 E1.30824
G1 X122.69 Y77.248 E.07149
G1 X125.535 Y77.177 E.12484
G1 X141.323 Y77.178 E.69238
G1 X143.155 Y77.242 E.0804
G1 X143.854 Y77.346 E.03097
G1 X145.41 Y77.865 E.07194
G1 X146.686 Y78.567 E.06387
G1 X147.407 Y79.156 E.04082
G1 X148.146 Y79.973 E.04831
G1 X149.123 Y81.351 E.07409
G1 X149.493 Y82.268 E.04338
G1 X149.85 Y83.989 E.07706
G1 X149.947 Y87.17 E.13958
G1 X149.947 Y133.97 E2.05246
G1 X149.88 Y135.912 E.08523
G1 X149.789 Y136.556 E.0285
G1 X149.448 Y137.853 E.05884
G1 X149.251 Y138.396 E.02534
G1 X148.797 Y139.227 E.04151
G1 X147.633 Y140.655 E.08079
G1 X146.841 Y141.323 E.04544
G1 X145.552 Y142.063 E.06519
G1 X144.288 Y142.558 E.05952
G1 X143.384 Y142.737 E.04044
G1 X141.33 Y142.832 E.09017
G1 X74.312 Y142.791 E2.93913
G1 X73.298 Y142.641 E.04497
G1 X71.897 Y142.062 E.06648
G1 X71.041 Y141.43 E.04666
G1 X70.492 Y140.909 E.03317
G1 X61.695 Y130.27 E.60546
G1 X60.983 Y129.274 E.05369
G1 X60.423 Y128.243 E.05147
G1 X59.903 Y126.832 E.06592
G1 X59.617 Y125.354 E.06602
G1 X59.576 Y123.847 E.06611
G1 X59.725 Y122.615 E.05443
G1 X60.124 Y121.171 E.06571
G1 X60.763 Y119.786 E.06689
G1 X61.515 Y118.663 E.05927
G1 X62.609 Y117.481 E.07062
G1 X87.427 Y93.517 E1.51301
G1 X87.738 Y93.84 F18000
G1 F3000
G1 X91.939 Y89.784 E.25606
G1 X92.701 Y89.178 E.04271
G1 X93.461 Y88.777 E.03769
G1 X121.221 Y77.919 E1.30726
G1 X122.701 Y77.696 E.06563
G1 X125.547 Y77.625 E.12484
G1 X141.307 Y77.626 E.6912
G1 X143.139 Y77.69 E.0804
G1 X143.737 Y77.78 E.02652
G1 X145.252 Y78.285 E.07
G1 X146.457 Y78.953 E.06044
G1 X147.074 Y79.457 E.03496
G1 X147.814 Y80.274 E.04831
G1 X148.719 Y81.545 E.06845
G1 X149.058 Y82.377 E.03939
G1 X149.402 Y84.002 E.07286
G1 X149.498 Y87.17 E.13897
G1 X149.498 Y133.97 E2.05246
G1 X149.431 Y135.896 E.08453
G1 X149.027 Y137.7 E.08108
G1 X148.829 Y138.243 E.02534
G1 X148.44 Y138.954 E.03554
G1 X147.291 Y140.365 E.0798
G1 X146.613 Y140.937 E.03891
G1 X145.368 Y141.654 E.06301
G1 X144.137 Y142.135 E.05797
G1 X143.362 Y142.289 E.03463
G1 X141.33 Y142.383 E.08924
G1 X74.378 Y142.347 E2.93626
G1 X73.363 Y142.197 E.04497
G1 X72.163 Y141.702 E.05693
G1 X70.838 Y140.624 E.07493
G1 X62.041 Y129.984 E.60546
G1 X61.35 Y129.016 E.05216
G1 X60.834 Y128.063 E.04753
G1 X60.337 Y126.723 E.06268
G1 X60.064 Y125.318 E.06277
G1 X60.023 Y123.885 E.06287
G1 X60.168 Y122.688 E.05288
G1 X60.549 Y121.313 E.06255
G1 X61.16 Y119.995 E.06373
G1 X61.884 Y118.919 E.05684
G1 X62.92 Y117.804 E.06679
G1 X87.71 Y93.868 E1.51125
G1 X88.021 Y94.19 F18000
G1 F3000
G1 X92.25 Y90.107 E.25781
G1 X92.954 Y89.549 E.03941
G1 X93.625 Y89.194 E.03326
G1 X121.364 Y78.344 E1.30627
G1 X122.712 Y78.145 E.05978
G1 X125.558 Y78.074 E.12484
G1 X141.292 Y78.074 E.69002
G1 X143.621 Y78.213 E.10236
G1 X145.093 Y78.705 E.06806
G1 X146.228 Y79.339 E.05701
G1 X146.742 Y79.758 E.02909
G1 X147.481 Y80.575 E.04831
G1 X148.315 Y81.74 E.06282
G1 X148.623 Y82.486 E.03541
G1 X148.954 Y84.016 E.06866
G1 X149.05 Y87.17 E.13836
G1 X149.05 Y133.97 E2.05246
G1 X148.983 Y135.88 E.08383
G1 X148.605 Y137.547 E.07496
G1 X148.084 Y138.682 E.05476
G1 X146.949 Y140.075 E.0788
G1 X146.385 Y140.551 E.03238
G1 X145.184 Y141.245 E.06083
G1 X143.986 Y141.713 E.05642
G1 X143.341 Y141.841 E.02882
G1 X141.33 Y141.935 E.0883
G1 X74.443 Y141.903 E2.93339
G1 X73.429 Y141.754 E.04497
G1 X72.43 Y141.341 E.04738
G1 X71.184 Y140.338 E.07018
G1 X62.387 Y129.698 E.60546
G1 X61.717 Y128.758 E.05062
G1 X61.245 Y127.883 E.04359
G1 X60.772 Y126.613 E.05943
G1 X60.511 Y125.281 E.05953
G1 X60.47 Y123.922 E.05963
G1 X60.61 Y122.76 E.05133
G1 X60.974 Y121.456 E.05939
G1 X61.557 Y120.204 E.06057
G1 X62.252 Y119.175 E.05442
G1 X63.232 Y118.126 E.06296
G1 X87.992 Y94.218 E1.5095
; start of layer_num: 1, T: 0, print_z: 0.240000
; printing object "верхняя часть.STL" id:0 copy 0
G1 E-.8 F3600
G1 X141.688 Y80.424 F18000
G1 E.8 F3600
;TYPE:Support
G1 F2400
G1 X141.949 Y80.523 E.01223
G1 X143.046 Y80.361 E.04862
G1 X143.519 Y80.488 E.02148
G1 X144.309 Y80.786 E.03702
G1 X144.58 Y81.068 E.01716
G1 X145.093 Y81.251 E.02391
G1 X145.833 Y82.068 E.04831
G1 X145.844 Y82.115 E.00212
G1 X145.913 Y82.167 E.00376
G1 X146.037 Y82.396 E.01143
G1 X146.31 Y82.704 E.01807
G1 X146.362 Y82.909 E.00928
G1 X146.465 Y83.026 E.00685
G1 X146.73 Y84.085 E.04787
G1 X146.463 Y85.154 E.04831
G1 X146.081 Y85.575 E.02492
G1 X146.558 Y86.101 E.03114
G1 X146.826 Y87.17 E.04831
G1 X146.609 Y88.036 E.03918
G1 X146.826 Y88.903 E.03918
G1 X146.609 Y89.77 E.03918
G1 X146.826 Y90.636 E.03918
G1 X146.609 Y91.503 E.03918
G1 X146.826 Y92.37 E.03918
G1 X146.609 Y93.236 E.03918
G1 X146.826 Y94.103 E.03918
G1 X146.609 Y94.97 E.03918
G1 X146.826 Y95.836 E.03918
G1 X146.609 Y96.703 E.03918
G1 X146.826 Y97.57 E.03918
G1 X146.609 Y98.436 E.03918
G1 X146.826 Y99.303 E.03918
G1 X146.609 Y100.17 E.03918
G1 X146.826 Y101.036 E.03918
G1 X146.609 Y101.903 E.03918
G1 X146.826 Y102.77 E.03918
G1 X146.609 Y103.636 E.03918
G1 X146.826 Y104.503 E.03918
G1 X146.609 Y105.37 E.03918
G1 X146.826 Y106.236 E.03918
G1 X146.609 Y107.103 E.03918
G1 X146.826 Y107.97 E.03918
G1 X146.609 Y108.836 E.03918
G1 X146.826 Y109.703 E.03918
G1 X146.609 Y110.57 E.03918
G1 X146.826 Y111.436 E.03918
G1 X146.609 Y112.303 E.03918
G1 X146.826 Y113.17 E.03918
G1 X146.609 Y114.036 E.03918
G1 X146.826 Y114.903 E.03918
G1 X146.609 Y115.77 E.03918
G1 X146.826 Y116.636 E.03918
G1 X146.609 Y117.503 E.03918
G1 X146.826 Y118.37 E.03918
G1 X146.609 Y119.236 E.03918
G1 X146.826 Y120.103 E.03918
G1 X146.609 Y120.97 E.03918
G1 X146.826 Y121.836 E.03918
G1 X146.609 Y122.703 E.03918
G1 X146.826 Y123.57 E.03918
G1 X146.609 Y124.436 E.03918
G1 X146.826 Y125.303 E.03918
G1 X146.609 Y126.17 E.03918
G1 X146.826 Y127.036 E.03918
G1 X146.609 Y127.903 E.03918
G1 X146.826 Y128.77 E.03918
G1 X146.609 Y129.636 E.03918
G1 X146.826 Y130.503 E.03918
G1 X146.609 Y131.37 E.03918
G1 X146.826 Y132.236 E.03918
G1 X146.609 Y133.103 E.03918
G1 X146.826 Y133.97 E.03918
G1 X146.564 Y135.016 E.04728
G1 X146.76 Y135.801 E.0355
G1 X146.515 Y136.787 E.04459
G1 X146.408 Y136.967 E.00915
G1 X146.317 Y137.33 E.01644
G1 X145.942 Y137.777 E.02558
G1 X145.923 Y137.846 E.00312
G1 X145.269 Y138.568 E.04273
G1 X145.253 Y138.636 E.00307
G1 X144.271 Y139.216 E.05005
G1 X143.924 Y139.372 E.01665
G1 X143.235 Y139.619 E.03212
G1 X142.136 Y139.457 E.04871
G1 X141.804 Y139.583 E.01557
G1 X141.33 Y139.71 E.02155
G1 X140.315 Y139.561 E.04497
G1 X140.219 Y139.489 E.00526
G1 X139.971 Y139.583 E.01162
G1 X139.496 Y139.711 E.02155
G1 X138.482 Y139.561 E.04497
G1 X138.385 Y139.49 E.00526
G1 X138.138 Y139.584 E.01162
G1 X137.663 Y139.711 E.02155
G1 X136.649 Y139.561 E.04497
G1 X136.552 Y139.49 E.00526
G1 X136.304 Y139.584 E.01162
G1 X135.83 Y139.711 E.02155
G1 X134.815 Y139.561 E.04497
G1 X134.719 Y139.49 E.00526
G1 X134.471 Y139.584 E.01162
G1 X133.996 Y139.711 E.02155
G1 X132.982 Y139.562 E.04497
G1 X132.885 Y139.49 E.00526
G1 X132.638 Y139.584 E.01162
G1 X132.163 Y139.711 E.02155
G1 X131.149 Y139.562 E.04497
G1 X131.052 Y139.49 E.00526
G1 X130.804 Y139.584 E.01162
G1 X130.33 Y139.712 E.02155
G1 X129.315 Y139.562 E.04497
G1 X129.219 Y139.491 E.00526
G1 X128.971 Y139.585 E.01162
G1 X128.496 Y139.712 E.02155
G1 X127.482 Y139.562 E.04497
G1 X127.385 Y139.491 E.00526
G1 X127.138 Y139.585 E.01162
G1 X126.663 Y139.712 E.02155
G1 X125.649 Y139.562 E.04497
G1 X125.552 Y139.491 E.00526
G1 X125.304 Y139.585 E.01162
G1 X124.83 Y139.712 E.02155
G1 X123.815 Y139.562 E.04497
G1 X123.508 Y139.335 E.01677
G1 X122.736 Y139.611 E.03594
G1 X121.778 Y139.495 E.04233
G1 X121.4 Y139.272 E.01926
G1 X120.915 Y139.07 E.02305
G1 X120.24 Y138.571 E.03683
G1 X120.146 Y138.391 E.00888
G1 X119.626 Y137.987 E.02888
G1 X119.464 Y137.647 E.01652
G1 X119.228 Y137.511 E.01195
G1 X118.965 Y136.627 E.04047
G1 X118.805 Y136.265 E.01735
G1 X118.805 Y135.315 E.04165
G1 X118.969 Y134.968 E.01684
G1 X118.741 Y134.533 E.02155
G1 X118.741 Y133.407 E.04939
G1 X118.9 Y133.103 E.01503
G1 X118.741 Y132.8 E.01503
G1 X118.741 Y131.674 E.04939
G1 X118.9 Y131.37 E.01503
G1 X118.741 Y131.067 E.01503
G1 X118.741 Y129.94 E.04939
G1 X118.9 Y129.637 E.01503
G1 X118.741 Y129.333 E.01503
G1 X118.741 Y128.207 E.04939
G1 X118.9 Y127.903 E.01503
G1 X118.741 Y127.6 E.01503
G1 X118.741 Y126.474 E.04939
G1 X118.9 Y126.17 E.01503
G1 X118.741 Y125.867 E.01503
G1 X118.741 Y124.74 E.04939
G1 X118.9 Y124.437 E.01503
G1 X118.741 Y124.133 E.01503
G1 X118.741 Y123.007 E.04939
G1 X118.9 Y122.704 E.01503
G1 X118.741 Y122.4 E.01503
G1 X118.741 Y121.274 E.04939
G1 X118.9 Y120.97 E.01503
G1 X118.741 Y120.667 E.01503
G1 X118.741 Y119.54 E.04939
G1 X118.9 Y119.237 E.01503
G1 X118.741 Y118.933 E.01503
G1 X118.741 Y117.807 E.04939
G1 X118.9 Y117.504 E.01503
G1 X118.741 Y117.2 E.01503
G1 X118.741 Y116.074 E.04939
G1 X118.9 Y115.77 E.01503
G1 X118.741 Y115.467 E.01503
G1 X118.741 Y114.34 E.04939
G1 X118.9 Y114.037 E.01503
G1 X118.741 Y113.733 E.01503
G1 X118.741 Y112.607 E.04939
G1 X118.9 Y112.304 E.01503
G1 X118.741 Y112 E.01503
G1 X118.741 Y110.874 E.04939
G1 X118.9 Y110.57 E.01503
G1 X118.741 Y110.267 E.01503
G1 X118.741 Y109.14 E.04939
G1 X118.926 Y108.787 E.01751
G1 X118.741 Y108.433 E.01751
G1 X118.741 Y107.307 E.04939
G1 X118.9 Y107.004 E.01503
G1 X118.741 Y106.7 E.01503
G1 X118.741 Y105.574 E.04939
G1 X118.926 Y105.22 E.01751
G1 X118.741 Y104.867 E.01751
G1 X118.741 Y103.74 E.04939
G1 X118.9 Y103.437 E.01503
G1 X118.741 Y103.133 E.01503
G1 X118.741 Y102.007 E.04939
G1 X118.9 Y101.704 E.01503
G1 X118.741 Y101.4 E.01503
G1 X118.741 Y100.274 E.04939
G1 X118.9 Y99.97 E.01503
G1 X118.741 Y99.667 E.01503
G1 X118.741 Y98.54 E.04939
G1 X118.9 Y98.237 E.01503
G1 X118.741 Y97.933 E.01503
G1 X118.741 Y96.807 E.04939
G1 X118.9 Y96.504 E.01503
G1 X118.741 Y96.2 E.01503
G1 X118.741 Y95.074 E.04939
G1 X118.9 Y94.77 E.01503
G1 X118.741 Y94.467 E.01503
G1 X118.741 Y93.34 E.04939
G1 X118.9 Y93.037 E.01503
G1 X118.741 Y92.733 E.01503
G1 X118.741 Y91.607 E.04939
G1 X118.9 Y91.304 E.01503
G1 X118.741 Y91 E.01503
G1 X118.741 Y89.874 E.04939
G1 X118.9 Y89.57 E.01503
G1 X118.741 Y89.267 E.01503
G1 X118.741 Y88.14 E.04939
G1 X118.9 Y87.837 E.01503
G1 X118.741 Y87.533 E.01503
G1 X118.741 Y86.407 E.04939
G1 X119.265 Y85.408 E.04946
G1 X118.867 Y84.742 E.03405
G1 X118.815 Y83.639 E.04843
G1 X119.545 Y82.117 E.07401
G1 X119.958 Y81.811 E.02253
G1 X119.997 Y81.772 E.00241
G1 X120.195 Y81.44 E.01696
G1 X120.994 Y80.889 E.04255
G1 X121.218 Y80.856 E.00994
G1 X121.563 Y80.624 E.01823
G1 X122.071 Y80.453 E.02352
G1 X122.768 Y80.368 E.03077
G1 X123.22 Y80.49 E.02053
G1 X123.869 Y80.736 E.03042
G1 X124.005 Y80.886 E.00892
G1 X124.599 Y80.447 E.03241
G1 X125.614 Y80.297 E.04497
G1 X126.088 Y80.424 E.02155
G1 X126.27 Y80.493 E.00851
G1 X126.332 Y80.447 E.00342
G1 X127.347 Y80.297 E.04497
G1 X127.822 Y80.424 E.02155
G1 X128.003 Y80.493 E.00851
G1 X128.066 Y80.447 E.00342
G1 X129.08 Y80.297 E.04497
G1 X129.555 Y80.424 E.02155
G1 X129.736 Y80.493 E.00851
G1 X129.799 Y80.447 E.00342
G1 X130.814 Y80.297 E.04497
G1 X131.288 Y80.424 E.02155
G1 X131.47 Y80.493 E.00851
G1 X131.532 Y80.447 E.00342
G1 X132.547 Y80.297 E.04497
G1 X133.021 Y80.424 E.02155
G1 X133.203 Y80.493 E.00851
G1 X133.266 Y80.447 E.00342
G1 X134.28 Y80.297 E.04497
G1 X134.755 Y80.424 E.02155
G1 X134.936 Y80.493 E.00851
G1 X134.999 Y80.447 E.00342
G1 X136.014 Y80.297 E.04497
G1 X136.488 Y80.424 E.02155
G1 X136.67 Y80.493 E.00851
G1 X136.732 Y80.447 E.00342
G1 X137.747 Y80.297 E.04497
G1 X138.222 Y80.424 E.02155
G1 X138.403 Y80.493 E.00851
G1 X138.466 Y80.447 E.00342
G1 X139.48 Y80.297 E.04497
G1 X139.955 Y80.424 E.02155
G1 X140.136 Y80.493 E.00851
G1 X140.199 Y80.447 E.00342
G1 X141.214 Y80.297 E.04497
G1 X141.623 Y80.407 E.0186
G1 X123.114 Y83.501 F18000
G1 F2400
G1 X142.386 Y83.501 E.84516
G1 X142.456 Y83.512 E.00312
G1 X142.835 Y83.636 E.0175
G1 X143.046 Y83.705 E.00974
G1 X143.134 Y83.758 E.0045
G1 X143.325 Y83.943 E.01166
G1 X143.383 Y84.034 E.00472
G1 X143.587 Y84.641 E.02807
G1 X143.599 Y84.713 E.00321
G1 X143.599 Y135.286 E2.2179
G1 X143.588 Y135.356 E.00312
G1 X143.395 Y135.946 E.02724
G1 X143.342 Y136.034 E.0045
G1 X143.157 Y136.225 E.01166
G1 X143.066 Y136.283 E.00472
G1 X142.459 Y136.487 E.02807
G1 X142.387 Y136.499 E.00321
G1 X123.113 Y136.499 E.84525
G1 X123.041 Y136.487 E.00321
G1 X122.434 Y136.283 E.02807
G1 X122.343 Y136.225 E.00472
G1 X122.158 Y136.034 E.01166
G1 X122.105 Y135.946 E.0045
G1 X121.912 Y135.356 E.02724
G1 X121.901 Y135.286 E.00312
G1 X121.901 Y84.713 E2.2179
G1 X121.913 Y84.641 E.00321
G1 X122.117 Y84.034 E.02807
G1 X122.175 Y83.943 E.00472
G1 X122.366 Y83.758 E.01166
G1 X122.454 Y83.705 E.0045
G1 X123.044 Y83.512 E.02724
G1 X123.048 Y83.512 E.00017
G1 E-.8 F3600
G1 X146.205 Y136.948 F18000
G1 E.8 F3600
G1 F2400
G1 X146.205 Y86.012 E2.23387
G1 X146.205 Y85.138 F18000
G1 F2400
G1 X146.205 Y83.648 E.06534
G1 X146.098 Y83.22 E.01934
G1 X145.994 Y83.103 E.00684
G1 X145.943 Y82.898 E.00928
G1 X145.707 Y82.631 E.01563
G1 X145.707 Y137.429 E2.40323
G1 X145.575 Y137.586 E.00896
G1 X145.559 Y137.647 E.00278
